;Generated with Cura_SteamEngine 15.04.6
M140 S60.0
M109 S220.0
M190 S60.0
G28
G21
G90
G92 E0
;Layer count: 27
;LAYER:0
M107
G0 F9000 X90.391 Y105.329 Z0.300
G0 X89.859 Y106.149
;TYPE:SKIRT
G1 F1200 X90.391 Y105.329 E0.04877
G1 X91.595 Y104.287 E0.12821
G1 X92.165 Y103.790 E0.16593
G1 X93.029 Y103.312 E0.21520
G1 X93.585 Y103.003 E0.24693
G1 X94.197 Y102.662 E0.28188
G1 X95.097 Y102.337 E0.32962
G1 X95.759 Y102.097 E0.36475
G1 X95.759 Y102.096 E0.36480
G1 X96.413 Y101.857 E0.39954
G1 X97.893 Y101.528 E0.47518
G1 X98.785 Y101.328 E0.52079
G1 X99.736 Y101.228 E0.56850
G1 X100.543 Y101.143 E0.60898
G1 X101.247 Y101.067 E0.64431
G1 X103.750 Y101.067 E0.76918
G1 X105.268 Y101.228 E0.84534
G1 X106.214 Y101.328 E0.89280
G1 X107.068 Y101.519 E0.93646
G1 X107.224 Y101.449 E0.94499
G1 X108.327 Y101.215 E1.00124
G1 X109.063 Y101.058 E1.03879
G1 X109.901 Y101.060 E1.08060
G1 X110.935 Y101.058 E1.13218
G1 X112.080 Y101.301 E1.19058
G1 X112.781 Y101.451 E1.22634
G1 X112.934 Y101.519 E1.23470
G1 X113.784 Y101.328 E1.27816
G1 X114.735 Y101.228 E1.32587
G1 X115.542 Y101.143 E1.36635
G1 X116.246 Y101.067 E1.40168
G1 X118.749 Y101.067 E1.52655
G1 X120.267 Y101.228 E1.60271
G1 X121.213 Y101.328 E1.65017
G1 X122.654 Y101.650 E1.72384
G1 X122.654 Y101.649 E1.72389
G1 X123.585 Y101.856 E1.77147
G1 X124.427 Y102.163 E1.81618
G1 X124.427 Y102.164 E1.81623
G1 X125.095 Y102.406 E1.85168
G1 X125.802 Y102.662 E1.88919
G1 X126.972 Y103.312 E1.95597
G1 X127.831 Y103.788 E2.00496
G1 X128.814 Y104.641 E2.06989
G1 X129.610 Y105.331 E2.12245
G1 X130.394 Y106.538 E2.19425
G1 X130.965 Y107.409 E2.24621
G1 X131.259 Y108.812 E2.31773
G1 X131.509 Y110.002 E2.37840
G1 X131.170 Y111.608 E2.46028
G1 X130.971 Y112.579 E2.50973
G1 X130.142 Y113.851 E2.58548
G1 X130.141 Y113.851 E2.58553
G1 X129.609 Y114.671 E2.63430
G1 X128.405 Y115.713 E2.71374
G1 X127.835 Y116.210 E2.75147
G1 X126.971 Y116.688 E2.80073
G1 X126.415 Y116.997 E2.83246
G1 X125.804 Y117.337 E2.86735
G1 X124.420 Y117.839 E2.94080
G1 X123.585 Y118.144 E2.98515
G1 X122.656 Y118.350 E3.03262
G1 X121.892 Y118.520 E3.07167
G1 X121.892 Y118.519 E3.07172
G1 X121.218 Y118.671 E3.10619
G1 X120.264 Y118.772 E3.15405
G1 X119.457 Y118.857 E3.19454
G1 X118.753 Y118.933 E3.22986
G1 X116.250 Y118.933 E3.35474
G1 X114.732 Y118.772 E3.43090
G1 X113.786 Y118.672 E3.47836
G1 X112.933 Y118.482 E3.52196
G1 X112.779 Y118.550 E3.53035
G1 X111.673 Y118.785 E3.58676
G1 X110.937 Y118.942 E3.62431
G1 X110.099 Y118.940 E3.66612
G1 X109.065 Y118.942 E3.71770
G1 X107.920 Y118.699 E3.77610
G1 X107.219 Y118.549 E3.81187
G1 X107.067 Y118.481 E3.82017
G1 X106.893 Y118.520 E3.82907
G1 X106.893 Y118.519 E3.82912
G1 X106.219 Y118.671 E3.86359
G1 X105.265 Y118.772 E3.91145
G1 X104.458 Y118.857 E3.95194
G1 X103.754 Y118.933 E3.98726
G1 X101.251 Y118.933 E4.11214
G1 X99.733 Y118.772 E4.18830
G1 X98.787 Y118.672 E4.23575
G1 X97.346 Y118.350 E4.30942
G1 X97.346 Y118.351 E4.30947
G1 X96.415 Y118.144 E4.35705
G1 X95.573 Y117.837 E4.40176
G1 X95.573 Y117.836 E4.40181
G1 X94.905 Y117.594 E4.43726
G1 X94.198 Y117.338 E4.47477
G1 X93.026 Y116.687 E4.54166
G1 X92.169 Y116.212 E4.59054
G1 X91.186 Y115.359 E4.65548
G1 X90.390 Y114.669 E4.70803
G1 X89.597 Y113.448 E4.78067
G1 X89.035 Y112.591 E4.83180
G1 X88.741 Y111.187 E4.90336
G1 X88.491 Y109.998 E4.96398
G1 X88.830 Y108.392 E5.04587
G1 X89.029 Y107.421 E5.09532
G1 X89.858 Y106.149 E5.17107
G1 X89.859 Y106.149 E5.17112
G0 F9000 X90.193 Y106.368
G1 F1200 X90.696 Y105.594 E5.21717
G1 X91.868 Y104.580 E5.29449
G1 X92.396 Y104.120 E5.32942
G1 X93.223 Y103.662 E5.37659
G1 X93.779 Y103.353 E5.40832
G1 X94.363 Y103.028 E5.44167
G1 X95.229 Y102.714 E5.48762
G1 X95.906 Y102.468 E5.52356
G1 X95.906 Y102.469 E5.52361
G1 X96.525 Y102.241 E5.55652
G1 X97.973 Y101.921 E5.63050
G1 X97.973 Y101.920 E5.63055
G1 X98.850 Y101.724 E5.67539
G1 X100.586 Y101.541 E5.76248
G1 X101.269 Y101.467 E5.79675
G1 X103.729 Y101.467 E5.91948
G1 X105.226 Y101.626 E5.99459
G1 X106.149 Y101.723 E6.04089
G1 X107.111 Y101.938 E6.09007
G1 X107.348 Y101.832 E6.10302
G1 X108.416 Y101.605 E6.15749
G1 X108.416 Y101.606 E6.15754
G1 X109.105 Y101.458 E6.19270
G1 X109.900 Y101.460 E6.23236
G1 X110.893 Y101.458 E6.28191
G1 X111.997 Y101.692 E6.33821
G1 X112.656 Y101.834 E6.37184
G1 X112.890 Y101.938 E6.38462
G1 X112.976 Y101.919 E6.38901
G1 X113.849 Y101.724 E6.43364
G1 X115.585 Y101.541 E6.52073
G1 X116.268 Y101.467 E6.55500
G1 X118.728 Y101.467 E6.67773
G1 X120.225 Y101.626 E6.75284
G1 X121.148 Y101.723 E6.79914
G1 X122.569 Y102.040 E6.87178
G1 X123.473 Y102.241 E6.91798
G1 X124.285 Y102.537 E6.96110
G1 X124.959 Y102.782 E6.99687
G1 X125.635 Y103.027 E7.03275
G1 X126.778 Y103.662 E7.09798
G1 X127.600 Y104.118 E7.14488
G1 X129.305 Y105.595 E7.25742
G1 X130.060 Y106.757 E7.32655
G1 X130.589 Y107.565 E7.37474
G1 X130.868 Y108.895 E7.44253
G1 X130.867 Y108.895 E7.44258
G1 X131.100 Y110.002 E7.49902
G1 X130.782 Y111.504 E7.57562
G1 X130.783 Y111.504 E7.57567
G1 X130.594 Y112.424 E7.62253
G1 X129.807 Y113.632 E7.69446
G1 X129.304 Y114.406 E7.74051
G1 X128.132 Y115.420 E7.81783
G1 X127.604 Y115.880 E7.85276
G1 X126.777 Y116.338 E7.89993
G1 X126.221 Y116.647 E7.93166
G1 X125.638 Y116.972 E7.96496
G1 X124.283 Y117.463 E8.03687
G1 X123.472 Y117.759 E8.07994
G1 X122.569 Y117.959 E8.12608
G1 X121.815 Y118.127 E8.16462
G1 X121.152 Y118.276 E8.19852
G1 X119.414 Y118.459 E8.28571
G1 X118.731 Y118.533 E8.31998
G1 X116.271 Y118.533 E8.44271
G1 X114.774 Y118.374 E8.51782
G1 X113.851 Y118.277 E8.56412
G1 X112.890 Y118.063 E8.61324
G1 X112.654 Y118.168 E8.62613
G1 X111.584 Y118.395 E8.68070
G1 X111.584 Y118.394 E8.68075
G1 X110.895 Y118.542 E8.71591
G1 X110.100 Y118.540 E8.75557
G1 X109.107 Y118.542 E8.80511
G1 X108.003 Y118.308 E8.86141
G1 X107.344 Y118.166 E8.89505
G1 X107.109 Y118.062 E8.90787
G1 X106.816 Y118.127 E8.92284
G1 X106.153 Y118.276 E8.95674
G1 X104.415 Y118.459 E9.04393
G1 X103.732 Y118.533 E9.07820
G1 X101.272 Y118.533 E9.20093
G1 X99.775 Y118.374 E9.27604
G1 X98.852 Y118.277 E9.32234
G1 X97.431 Y117.960 E9.39498
G1 X96.527 Y117.759 E9.44118
G1 X95.715 Y117.463 E9.48430
G1 X95.038 Y117.217 E9.52024
G1 X94.365 Y116.973 E9.55595
G1 X93.220 Y116.337 E9.62130
G1 X92.400 Y115.882 E9.66808
G1 X90.695 Y114.405 E9.78062
G1 X89.940 Y113.243 E9.84976
G1 X89.411 Y112.435 E9.89794
G1 X89.132 Y111.105 E9.96574
G1 X89.133 Y111.105 E9.96579
G1 X88.900 Y109.998 E10.02223
G1 X89.218 Y108.496 E10.09882
G1 X89.217 Y108.496 E10.09887
G1 X89.406 Y107.576 E10.14573
G1 X90.193 Y106.368 E10.21766
G0 F9000 X90.528 Y106.586
G1 F1200 X91.000 Y105.860 E10.26086
G1 X92.130 Y104.882 E10.33542
G1 X92.627 Y104.449 E10.36831
G1 X93.414 Y104.014 E10.41317
G1 X93.413 Y104.013 E10.41324
G1 X93.973 Y103.702 E10.44520
G1 X94.530 Y103.393 E10.47698
G1 X95.365 Y103.090 E10.52129
G1 X96.042 Y102.844 E10.55723
G1 X96.638 Y102.626 E10.58889
G1 X98.060 Y102.311 E10.66155
G1 X98.060 Y102.310 E10.66160
G1 X98.915 Y102.119 E10.70531
G1 X100.638 Y101.938 E10.79174
G1 X101.290 Y101.867 E10.82446
G1 X103.708 Y101.867 E10.94510
G1 X105.183 Y102.024 E11.01910
G1 X106.084 Y102.119 E11.06430
G1 X107.151 Y102.357 E11.11884
G1 X107.472 Y102.214 E11.13638
G1 X108.499 Y101.997 E11.18874
G1 X109.146 Y101.858 E11.22176
G1 X109.900 Y101.860 E11.25938
G1 X110.852 Y101.858 E11.30687
G1 X111.913 Y102.083 E11.36098
G1 X112.531 Y102.216 E11.39252
G1 X112.849 Y102.358 E11.40990
G1 X113.059 Y102.311 E11.42063
G1 X113.059 Y102.310 E11.42068
G1 X113.914 Y102.119 E11.46439
G1 X115.637 Y101.938 E11.55082
G1 X116.289 Y101.867 E11.58354
G1 X118.707 Y101.867 E11.70418
G1 X120.182 Y102.024 E11.77818
G1 X121.083 Y102.119 E11.82338
G1 X122.480 Y102.431 E11.89480
G1 X122.480 Y102.430 E11.89485
G1 X123.360 Y102.626 E11.93983
G1 X124.149 Y102.914 E11.98173
G1 X124.149 Y102.913 E11.98178
G1 X124.826 Y103.159 E12.01772
G1 X125.469 Y103.392 E12.05184
G1 X126.584 Y104.012 E12.11549
G1 X127.370 Y104.447 E12.16030
G1 X129.000 Y105.861 E12.26796
G1 X129.725 Y106.977 E12.33435
G1 X130.213 Y107.721 E12.37874
G1 X130.476 Y108.976 E12.44272
G1 X130.691 Y110.002 E12.49502
G1 X130.387 Y111.443 E12.56849
G1 X130.218 Y112.269 E12.61055
G1 X129.472 Y113.414 E12.67873
G1 X129.000 Y114.140 E12.72193
G1 X127.870 Y115.118 E12.79649
G1 X127.373 Y115.551 E12.82938
G1 X126.586 Y115.986 E12.87424
G1 X126.587 Y115.987 E12.87431
G1 X126.027 Y116.298 E12.90627
G1 X125.471 Y116.607 E12.93800
G1 X124.147 Y117.087 E13.00827
G1 X124.147 Y117.086 E13.00832
G1 X123.360 Y117.375 E13.05014
G1 X122.478 Y117.570 E13.09521
G1 X121.718 Y117.739 E13.13405
G1 X121.087 Y117.881 E13.16632
G1 X119.362 Y118.062 E13.25285
G1 X118.710 Y118.133 E13.28557
G1 X116.292 Y118.133 E13.40621
G1 X114.817 Y117.976 E13.48021
G1 X113.916 Y117.881 E13.52541
G1 X112.848 Y117.643 E13.58000
G1 X112.530 Y117.785 E13.59738
G1 X111.501 Y118.003 E13.64985
G1 X110.854 Y118.142 E13.68287
G1 X110.100 Y118.140 E13.72049
G1 X109.148 Y118.142 E13.76798
G1 X108.087 Y117.917 E13.82209
G1 X107.469 Y117.784 E13.85363
G1 X107.151 Y117.643 E13.87098
G1 X106.719 Y117.739 E13.89306
G1 X106.088 Y117.881 E13.92533
G1 X104.363 Y118.062 E14.01186
G1 X103.711 Y118.133 E14.04458
G1 X101.293 Y118.133 E14.16522
G1 X99.818 Y117.976 E14.23922
G1 X98.917 Y117.881 E14.28442
G1 X97.520 Y117.569 E14.35584
G1 X97.520 Y117.570 E14.35589
G1 X96.640 Y117.374 E14.40087
G1 X95.851 Y117.086 E14.44277
G1 X95.851 Y117.087 E14.44282
G1 X95.174 Y116.841 E14.47876
G1 X94.531 Y116.608 E14.51288
G1 X93.414 Y115.987 E14.57664
G1 X92.630 Y115.553 E14.62134
G1 X91.000 Y114.139 E14.72900
G1 X90.268 Y113.012 E14.79604
G1 X89.787 Y112.279 E14.83979
G1 X89.524 Y111.023 E14.90381
G1 X89.309 Y109.998 E14.95606
G1 X89.613 Y108.557 E15.02953
G1 X89.782 Y107.731 E15.07159
G1 X90.528 Y106.586 E15.13977
G1 F2400 E10.63977
G0 F9000 X94.047 Y108.879
;TYPE:WALL-INNER
G1 F2400 E15.13977
G1 F1200 X94.200 Y108.645 E15.15372
G1 X94.880 Y108.057 E15.19857
G1 X95.052 Y107.907 E15.20996
G1 X96.013 Y107.374 E15.26478
G1 X96.281 Y107.225 E15.28008
G1 X96.799 Y107.038 E15.30756
G1 X97.478 Y106.791 E15.34360
G1 X97.821 Y106.665 E15.36183
G1 X98.978 Y106.409 E15.42095
G1 X99.602 Y106.269 E15.45286
G1 X101.079 Y106.114 E15.52695
G1 X101.515 Y106.067 E15.54883
G1 X103.488 Y106.067 E15.64726
G1 X104.740 Y106.200 E15.71008
G1 X105.409 Y106.271 E15.74364
G1 X107.188 Y106.668 E15.83458
G1 X107.663 Y106.837 E15.85973
G1 X108.025 Y106.565 E15.88232
G1 X108.777 Y106.231 E15.92337
G1 X109.371 Y106.105 E15.95367
G1 X109.586 Y106.059 E15.96464
G1 X109.898 Y106.060 E15.98020
G1 X110.417 Y106.059 E16.00609
G1 X111.036 Y106.190 E16.03766
G1 X111.224 Y106.231 E16.04726
G1 X111.975 Y106.565 E16.08827
G1 X112.279 Y106.793 E16.10722
G1 X113.220 Y106.578 E16.15538
G1 X113.977 Y106.409 E16.19408
G1 X114.601 Y106.269 E16.22598
G1 X116.078 Y106.114 E16.30007
G1 X116.514 Y106.067 E16.32195
G1 X118.487 Y106.067 E16.42039
G1 X119.739 Y106.200 E16.48320
G1 X120.408 Y106.271 E16.51676
G1 X122.182 Y106.666 E16.60744
G1 X122.714 Y106.861 E16.63571
G1 X123.392 Y107.107 E16.67169
G1 X123.721 Y107.226 E16.68914
G1 X124.949 Y107.907 E16.75920
G1 X125.801 Y108.646 E16.81547
G1 X126.212 Y109.278 E16.85308
G1 X126.265 Y109.358 E16.85787
G1 X126.399 Y110.000 E16.89059
G1 X126.277 Y110.578 E16.92006
G1 X126.263 Y110.644 E16.92342
G1 X125.953 Y111.121 E16.95181
G1 X125.800 Y111.355 E16.96575
G1 X125.120 Y111.943 E17.01060
G1 X124.948 Y112.093 E17.02199
G1 X123.987 Y112.626 E17.07681
G1 X123.720 Y112.774 E17.09204
G1 X122.715 Y113.138 E17.14537
G1 X122.177 Y113.335 E17.17396
G1 X121.570 Y113.469 E17.20497
G1 X120.804 Y113.639 E17.24411
G1 X120.395 Y113.731 E17.26503
G1 X118.921 Y113.886 E17.33897
G1 X118.485 Y113.933 E17.36085
G1 X116.512 Y113.933 E17.45928
G1 X115.260 Y113.800 E17.52210
G1 X114.591 Y113.729 E17.55566
G1 X112.812 Y113.332 E17.64660
G1 X112.337 Y113.163 E17.67175
G1 X111.975 Y113.435 E17.69434
G1 X111.426 Y113.678 E17.72430
G1 X111.222 Y113.769 E17.73544
G1 X110.629 Y113.895 E17.76569
G1 X110.414 Y113.941 E17.77665
G1 X110.102 Y113.940 E17.79222
G1 X109.583 Y113.941 E17.81811
G1 X108.964 Y113.810 E17.84968
G1 X108.776 Y113.769 E17.85928
G1 X108.026 Y113.435 E17.90024
G1 X107.722 Y113.207 E17.91920
G1 X106.566 Y113.470 E17.97834
G1 X105.805 Y113.639 E18.01724
G1 X105.396 Y113.731 E18.03815
G1 X103.922 Y113.886 E18.11209
G1 X103.486 Y113.933 E18.13397
G1 X101.513 Y113.933 E18.23241
G1 X100.261 Y113.800 E18.29522
G1 X99.592 Y113.729 E18.32878
G1 X97.818 Y113.334 E18.41946
G1 X97.286 Y113.139 E18.44772
G1 X96.608 Y112.893 E18.48371
G1 X96.279 Y112.774 E18.50116
G1 X95.051 Y112.093 E18.57122
G1 X94.199 Y111.354 E18.62749
G1 X93.788 Y110.722 E18.66510
G1 X93.735 Y110.642 E18.66989
G1 X93.601 Y109.999 E18.70265
G1 X93.723 Y109.422 E18.73208
G1 X93.737 Y109.356 E18.73544
G1 X94.047 Y108.879 E18.76382
G0 F9000 X107.994 Y110.000
G1 F1200 X108.039 Y110.417 E18.78475
G1 X108.168 Y110.815 E18.80562
G1 X108.379 Y111.180 E18.82666
G1 X108.671 Y111.501 E18.84831
G1 X109.009 Y111.741 E18.86899
G1 X109.380 Y111.908 E18.88929
G1 X109.795 Y111.994 E18.91043
G1 X110.224 Y111.992 E18.93183
G1 X110.636 Y111.902 E18.95287
G1 X111.015 Y111.728 E18.97368
G1 X111.343 Y111.489 E18.99393
G1 X111.624 Y111.177 E19.01487
G1 X111.832 Y110.815 E19.03570
G1 X111.961 Y110.417 E19.05658
G1 X112.006 Y110.000 E19.07750
G1 X111.961 Y109.583 E19.09843
G1 X111.832 Y109.185 E19.11930
G1 X111.621 Y108.820 E19.14033
G1 X111.329 Y108.499 E19.16198
G1 X110.991 Y108.259 E19.18266
G1 X110.620 Y108.092 E19.20296
G1 X110.205 Y108.006 E19.22411
G1 X109.776 Y108.008 E19.24551
G1 X109.363 Y108.099 E19.26661
G1 X108.987 Y108.272 E19.28726
G1 X108.658 Y108.510 E19.30752
G1 X108.376 Y108.823 E19.32854
G1 X108.168 Y109.185 E19.34936
G1 X108.039 Y109.583 E19.37024
G1 X107.994 Y110.000 E19.39116
G0 F9000 X108.397 Y110.000
G1 F1200 X108.432 Y110.333 E19.40787
G1 X108.536 Y110.651 E19.42456
G1 X108.704 Y110.943 E19.44137
G1 X108.938 Y111.200 E19.45871
G1 X109.208 Y111.392 E19.47524
G1 X109.505 Y111.525 E19.49147
G1 X109.835 Y111.594 E19.50829
G1 X110.180 Y111.593 E19.52550
G1 X110.509 Y111.520 E19.54232
G1 X110.812 Y111.381 E19.55895
G1 X111.073 Y111.191 E19.57505
G1 X111.298 Y110.941 E19.59183
G1 X111.464 Y110.651 E19.60850
G1 X111.568 Y110.333 E19.62520
G1 X111.603 Y110.000 E19.64190
G1 X111.568 Y109.667 E19.65861
G1 X111.464 Y109.349 E19.67530
G1 X111.296 Y109.057 E19.69211
G1 X111.062 Y108.800 E19.70945
G1 X110.792 Y108.608 E19.72597
G1 X110.495 Y108.475 E19.74221
G1 X110.165 Y108.406 E19.75903
G1 X109.820 Y108.407 E19.77624
G1 X109.491 Y108.480 E19.79306
G1 X109.190 Y108.619 E19.80960
G1 X108.927 Y108.809 E19.82578
G1 X108.702 Y109.059 E19.84256
G1 X108.536 Y109.349 E19.85923
G1 X108.432 Y109.667 E19.87593
G1 X108.397 Y110.000 E19.89263
G0 F9000 X107.595 Y106.388
G1 F1200 X107.822 Y106.217 E19.90681
G1 X108.651 Y105.849 E19.95206
G1 X109.288 Y105.714 E19.98455
G1 X109.544 Y105.659 E19.99761
G1 X109.898 Y105.660 E20.01527
G1 X110.457 Y105.659 E20.04316
G1 X111.120 Y105.800 E20.07698
G1 X111.350 Y105.849 E20.08871
G1 X112.178 Y106.217 E20.13391
G1 X112.371 Y106.362 E20.14596
G1 X113.126 Y106.189 E20.18460
G1 X114.530 Y105.875 E20.25638
G1 X116.036 Y105.717 E20.33192
G1 X116.499 Y105.667 E20.35516
G1 X118.502 Y105.667 E20.45509
G1 X120.468 Y105.875 E20.55372
G1 X122.293 Y106.282 E20.64701
G1 X123.528 Y106.731 E20.71257
G1 X123.887 Y106.861 E20.73161
G1 X125.182 Y107.580 E20.80551
G1 X126.106 Y108.380 E20.86649
G1 X126.547 Y109.059 E20.90688
G1 X126.641 Y109.204 E20.91550
G1 X126.808 Y109.999 E20.95603
G1 X126.669 Y110.660 E20.98973
G1 X126.641 Y110.797 E20.99671
G1 X126.288 Y111.339 E21.02898
G1 X126.107 Y111.618 E21.04557
G1 X125.383 Y112.245 E21.09335
G1 X125.182 Y112.420 E21.10665
G1 X124.182 Y112.975 E21.16371
G1 X123.889 Y113.139 E21.18046
G1 X122.852 Y113.514 E21.23547
G1 X122.297 Y113.717 E21.26496
G1 X120.892 Y114.029 E21.33676
G1 X120.473 Y114.124 E21.35819
G1 X118.963 Y114.283 E21.43394
G1 X118.500 Y114.333 E21.45718
G1 X116.497 Y114.333 E21.55711
G1 X114.532 Y114.125 E21.65569
G1 X112.699 Y113.717 E21.74938
G1 X112.405 Y113.612 E21.76495
G1 X112.176 Y113.784 E21.77924
G1 X111.589 Y114.044 E21.81127
