;FLAVOR:RepRap
;TIME:1169
;Filament used: 0.416218m
;Layer height: 0.1
;Generated with Cura_SteamEngine 2.4.0
M190 S50
M104 S205
M109 S205
G28 ;Home
G1 Z15.0 F6000 ;Move the platform down 15mm
;Prime the extruder
G92 E0
G1 F200 E3
G92 E0
;LAYER_COUNT:54
;LAYER:0
M107
G1 F2700 E-6.5
G0 F1500 X2.659 Y-5.748 Z0.2
;TYPE:SKIRT
G1 F2700 E0
G1 F900 X4.132 Y-6.078 E0.05021
G1 X4.29 Y-6.104 E0.05553
G1 X6.316 Y-6.319 E0.1233
G1 X6.464 Y-6.327 E0.12823
G1 X8.535 Y-6.327 E0.19711
G1 X8.683 Y-6.319 E0.20204
G1 X10.709 Y-6.104 E0.2698
G1 X10.865 Y-6.079 E0.27506
G1 X12.761 Y-5.657 E0.33966
G1 X12.936 Y-5.606 E0.34572
G1 X14.61 Y-4.997 E0.40497
G1 X14.811 Y-4.905 E0.41232
G1 X16.196 Y-4.136 E0.46501
G1 X16.432 Y-3.97 E0.47461
G1 X17.467 Y-3.074 E0.52014
G1 X17.725 Y-2.779 E0.53317
G1 X18.366 Y-1.793 E0.57229
G1 X18.513 Y-1.493 E0.5834
G1 X18.562 Y-1.317 E0.58948
G1 X18.778 Y-.287 E0.62448
G1 X18.807 Y0.045 E0.63557
G1 X18.778 Y0.287 E0.64367
G1 X18.562 Y1.317 E0.67868
G1 X18.455 Y1.634 E0.6898
G1 X18.366 Y1.793 E0.69586
G1 X17.725 Y2.779 E0.73498
G1 X17.467 Y3.074 E0.74801
G1 X16.432 Y3.97 E0.79355
G1 X16.196 Y4.136 E0.80314
G1 X14.811 Y4.905 E0.85583
G1 X14.61 Y4.997 E0.86318
G1 X12.936 Y5.606 E0.92243
G1 X12.761 Y5.657 E0.92849
G1 X10.865 Y6.079 E0.9931
G1 X10.709 Y6.104 E0.99835
G1 X8.683 Y6.319 E1.06612
G1 X8.535 Y6.327 E1.07105
G1 X6.464 Y6.327 E1.13993
G1 X6.316 Y6.319 E1.14486
G1 X4.29 Y6.104 E1.21262
G1 X4.149 Y6.082 E1.21737
G1 X2.636 Y5.763 E1.2688
G1 X2.106 Y5.999 E1.28809
G1 X1.828 Y6.089 E1.29781
G1 X0.809 Y6.306 E1.33246
G1 X0.517 Y6.337 E1.34223
G1 X-.517 Y6.337 E1.37662
G1 X-.809 Y6.306 E1.38639
G1 X-1.828 Y6.089 E1.42104
G1 X-2.114 Y5.995 E1.43105
G1 X-2.659 Y5.748 E1.45095
G1 X-4.132 Y6.078 E1.50116
G1 X-4.29 Y6.104 E1.50649
G1 X-6.316 Y6.319 E1.57425
G1 X-6.464 Y6.327 E1.57918
G1 X-8.535 Y6.327 E1.64806
G1 X-8.683 Y6.319 E1.65299
G1 X-10.709 Y6.104 E1.72075
G1 X-10.865 Y6.079 E1.72601
G1 X-12.761 Y5.657 E1.79061
G1 X-12.936 Y5.606 E1.79668
G1 X-14.61 Y4.997 E1.85592
G1 X-14.811 Y4.905 E1.86328
G1 X-16.196 Y4.136 E1.91597
G1 X-16.432 Y3.97 E1.92556
G1 X-17.467 Y3.074 E1.97109
G1 X-17.725 Y2.779 E1.98413
G1 X-18.366 Y1.793 E2.02324
G1 X-18.513 Y1.493 E2.03436
G1 X-18.562 Y1.317 E2.04043
G1 X-18.778 Y0.287 E2.07544
G1 X-18.807 Y-0.045 E2.08652
G1 X-18.778 Y-.287 E2.09463
G1 X-18.562 Y-1.317 E2.12963
G1 X-18.455 Y-1.634 E2.14076
G1 X-18.366 Y-1.793 E2.14682
G1 X-17.725 Y-2.779 E2.18593
G1 X-17.467 Y-3.074 E2.19897
G1 X-16.432 Y-3.97 E2.2445
G1 X-16.196 Y-4.136 E2.2541
G1 X-14.811 Y-4.905 E2.30679
G1 X-14.61 Y-4.997 E2.31414
G1 X-12.936 Y-5.606 E2.37339
G1 X-12.761 Y-5.657 E2.37945
G1 X-10.865 Y-6.079 E2.44405
G1 X-10.709 Y-6.104 E2.44931
G1 X-8.683 Y-6.319 E2.51707
G1 X-8.535 Y-6.327 E2.522
G1 X-6.464 Y-6.327 E2.59088
G1 X-6.316 Y-6.319 E2.59581
G1 X-4.29 Y-6.104 E2.66358
G1 X-4.131 Y-6.078 E2.66893
G1 X-2.66 Y-5.748 E2.71908
G1 X-2.114 Y-5.995 E2.73901
G1 X-1.828 Y-6.089 E2.74902
G1 X-.809 Y-6.306 E2.78367
G1 X-.517 Y-6.337 E2.79344
G1 X0.517 Y-6.337 E2.82783
G1 X0.809 Y-6.306 E2.8376
G1 X1.828 Y-6.089 E2.87225
G1 X2.114 Y-5.995 E2.88226
G1 X2.659 Y-5.748 E2.90216
G0 F1500 X2.616 Y-5.328
G1 F900 X4.219 Y-5.688 E2.95681
G1 X4.332 Y-5.706 E2.96061
G1 X6.358 Y-5.921 E3.02838
G1 X6.464 Y-5.927 E3.03191
G1 X8.535 Y-5.927 E3.10079
G1 X8.641 Y-5.921 E3.10432
G1 X10.667 Y-5.706 E3.17208
G1 X10.778 Y-5.688 E3.17582
G1 X12.674 Y-5.266 E3.24043
G1 X12.799 Y-5.23 E3.24475
G1 X14.473 Y-4.621 E3.304
G1 X14.616 Y-4.555 E3.30924
G1 X16.001 Y-3.786 E3.36193
G1 X16.171 Y-3.668 E3.36881
G1 X17.206 Y-2.772 E3.41434
G1 X17.389 Y-2.561 E3.42363
G1 X18.03 Y-1.575 E3.46275
G1 X18.171 Y-1.235 E3.47499
G1 X18.387 Y-.205 E3.51
G1 X18.387 Y0.205 E3.52363
G1 X18.171 Y1.235 E3.55863
G1 X18.03 Y1.575 E3.57088
G1 X17.389 Y2.561 E3.60999
G1 X17.206 Y2.772 E3.61928
G1 X16.171 Y3.668 E3.66481
G1 X16.001 Y3.786 E3.6717
G1 X14.616 Y4.555 E3.72439
G1 X14.473 Y4.621 E3.72962
G1 X12.799 Y5.23 E3.78887
G1 X12.674 Y5.266 E3.7932
G1 X10.778 Y5.688 E3.8578
G1 X10.667 Y5.706 E3.86154
G1 X8.641 Y5.921 E3.92931
G1 X8.535 Y5.927 E3.93284
G1 X6.464 Y5.927 E4.00172
G1 X6.358 Y5.921 E4.00525
G1 X4.332 Y5.706 E4.07301
G1 X4.232 Y5.69 E4.07638
G1 X2.592 Y5.344 E4.13213
G1 X1.943 Y5.633 E4.15576
G1 X1.744 Y5.698 E4.16272
G1 X0.725 Y5.915 E4.19737
G1 X0.517 Y5.937 E4.20433
G1 X-.517 Y5.937 E4.23872
G1 X-.725 Y5.915 E4.24568
G1 X-1.744 Y5.698 E4.28033
G1 X-1.949 Y5.631 E4.2875
G1 X-2.616 Y5.328 E4.31187
G1 X-4.219 Y5.688 E4.36651
G1 X-4.332 Y5.706 E4.37032
G1 X-6.358 Y5.921 E4.43808
G1 X-6.464 Y5.927 E4.44161
G1 X-8.535 Y5.927 E4.5105
G1 X-8.641 Y5.921 E4.51403
G1 X-10.667 Y5.706 E4.58179
G1 X-10.778 Y5.688 E4.58553
G1 X-12.674 Y5.266 E4.65014
G1 X-12.799 Y5.23 E4.65446
G1 X-14.473 Y4.621 E4.71371
G1 X-14.616 Y4.555 E4.71895
G1 X-16.001 Y3.786 E4.77164
G1 X-16.171 Y3.668 E4.77852
G1 X-17.206 Y2.772 E4.82405
G1 X-17.389 Y2.561 E4.83334
G1 X-18.03 Y1.575 E4.87246
G1 X-18.171 Y1.235 E4.8847
G1 X-18.387 Y0.205 E4.9197
G1 X-18.387 Y-.205 E4.93334
G1 X-18.171 Y-1.235 E4.96834
G1 X-18.03 Y-1.575 E4.98058
G1 X-17.389 Y-2.561 E5.0197
G1 X-17.206 Y-2.772 E5.02899
G1 X-16.171 Y-3.668 E5.07452
G1 X-16.001 Y-3.786 E5.0814
G1 X-14.616 Y-4.555 E5.13409
G1 X-14.473 Y-4.621 E5.13933
G1 X-12.799 Y-5.23 E5.19858
G1 X-12.674 Y-5.266 E5.20291
G1 X-10.778 Y-5.688 E5.26751
G1 X-10.667 Y-5.706 E5.27125
G1 X-8.641 Y-5.921 E5.33901
G1 X-8.535 Y-5.927 E5.34254
G1 X-6.464 Y-5.927 E5.41143
G1 X-6.358 Y-5.921 E5.41496
G1 X-4.332 Y-5.706 E5.48272
G1 X-4.219 Y-5.688 E5.48653
G1 X-2.617 Y-5.328 E5.54114
G1 X-1.949 Y-5.631 E5.56553
G1 X-1.744 Y-5.698 E5.57271
G1 X-.725 Y-5.915 E5.60736
G1 X-.517 Y-5.937 E5.61432
G1 X0.517 Y-5.937 E5.64871
G1 X0.725 Y-5.915 E5.65566
G1 X1.744 Y-5.698 E5.69032
G1 X1.949 Y-5.631 E5.69749
G1 X2.616 Y-5.328 E5.72186
G0 F1500 X2.573 Y-4.908
G1 F900 X4.307 Y-5.297 E5.78096
G1 X4.375 Y-5.309 E5.78326
G1 X6.401 Y-5.524 E5.85102
G1 X6.464 Y-5.527 E5.85312
G1 X8.535 Y-5.527 E5.922
G1 X8.598 Y-5.524 E5.9241
G1 X10.624 Y-5.309 E5.99186
G1 X10.691 Y-5.298 E5.99412
G1 X12.587 Y-4.876 E6.05873
G1 X12.662 Y-4.854 E6.06133
G1 X14.336 Y-4.245 E6.12057
G1 X14.422 Y-4.206 E6.12371
G1 X15.807 Y-3.437 E6.1764
G1 X15.909 Y-3.366 E6.18054
G1 X16.944 Y-2.47 E6.22607
G1 X17.054 Y-2.343 E6.23166
G1 X17.695 Y-1.357 E6.27077
G1 X17.779 Y-1.153 E6.27811
G1 X17.995 Y-.123 E6.31311
G1 X17.995 Y0.123 E6.32129
G1 X17.779 Y1.153 E6.3563
G1 X17.695 Y1.357 E6.36364
G1 X17.054 Y2.343 E6.40275
G1 X16.944 Y2.47 E6.40834
G1 X15.909 Y3.366 E6.45387
G1 X15.807 Y3.437 E6.458
G1 X14.422 Y4.206 E6.51069
G1 X14.336 Y4.245 E6.51383
G1 X12.662 Y4.854 E6.57308
G1 X12.587 Y4.876 E6.57568
G1 X10.691 Y5.298 E6.64029
G1 X10.624 Y5.309 E6.64254
G1 X8.598 Y5.524 E6.71031
G1 X8.535 Y5.527 E6.71241
G1 X6.464 Y5.527 E6.78129
G1 X6.401 Y5.524 E6.78339
G1 X4.375 Y5.309 E6.85115
G1 X4.314 Y5.299 E6.8532
G1 X2.547 Y4.926 E6.91327
G1 X1.78 Y5.268 E6.9412
G1 X1.661 Y5.307 E6.94537
G1 X0.642 Y5.524 E6.98002
G1 X0.517 Y5.537 E6.9842
G1 X-.517 Y5.537 E7.01859
G1 X-.642 Y5.524 E7.02277
G1 X-1.661 Y5.307 E7.05742
G1 X-1.784 Y5.266 E7.06173
G1 X-2.573 Y4.908 E7.09055
G1 X-4.307 Y5.297 E7.14966
G1 X-4.375 Y5.309 E7.15195
G1 X-6.401 Y5.524 E7.21972
G1 X-6.464 Y5.527 E7.22182
G1 X-8.535 Y5.527 E7.2907
G1 X-8.598 Y5.524 E7.2928
G1 X-10.624 Y5.309 E7.36056
G1 X-10.691 Y5.298 E7.36282
G1 X-12.587 Y4.876 E7.42742
G1 X-12.662 Y4.854 E7.43002
G1 X-14.336 Y4.245 E7.48927
G1 X-14.422 Y4.206 E7.49241
G1 X-15.807 Y3.437 E7.5451
G1 X-15.909 Y3.366 E7.54923
G1 X-16.944 Y2.47 E7.59476
G1 X-17.054 Y2.343 E7.60035
G1 X-17.695 Y1.357 E7.63947
G1 X-17.779 Y1.153 E7.64681
G1 X-17.995 Y0.123 E7.68181
G1 X-17.995 Y-.123 E7.68999
G1 X-17.779 Y-1.153 E7.72499
G1 X-17.695 Y-1.357 E7.73233
G1 X-17.054 Y-2.343 E7.77145
G1 X-16.944 Y-2.47 E7.77703
G1 X-15.909 Y-3.366 E7.82257
G1 X-15.807 Y-3.437 E7.8267
G1 X-14.422 Y-4.206 E7.87939
G1 X-14.336 Y-4.245 E7.88253
G1 X-12.662 Y-4.854 E7.94178
G1 X-12.587 Y-4.876 E7.94438
G1 X-10.691 Y-5.298 E8.00898
G1 X-10.624 Y-5.309 E8.01124
G1 X-8.598 Y-5.524 E8.079
G1 X-8.535 Y-5.527 E8.0811
G1 X-6.464 Y-5.527 E8.14998
G1 X-6.401 Y-5.524 E8.15208
G1 X-4.375 Y-5.309 E8.21984
G1 X-4.307 Y-5.297 E8.22214
G1 X-2.574 Y-4.908 E8.28121
G1 X-1.784 Y-5.266 E8.31006
G1 X-1.661 Y-5.307 E8.31437
G1 X-.642 Y-5.524 E8.34903
G1 X-.517 Y-5.537 E8.35321
G1 X0.517 Y-5.537 E8.3876
G1 X0.642 Y-5.524 E8.39178
G1 X1.661 Y-5.307 E8.42643
G1 X1.784 Y-5.266 E8.43074
G1 X2.573 Y-4.908 E8.45956
G0 F1500 X2.53 Y-4.489
G1 F900 X4.394 Y-4.907 E8.5231
G1 X4.417 Y-4.911 E8.52387
G1 X6.443 Y-5.126 E8.59164
G1 X6.464 Y-5.127 E8.59233
G1 X8.535 Y-5.127 E8.66122
G1 X8.556 Y-5.126 E8.66192
G1 X10.582 Y-4.911 E8.72968
G1 X10.604 Y-4.907 E8.73042
G1 X12.5 Y-4.485 E8.79503
G1 X12.525 Y-4.478 E8.79589
G1 X14.199 Y-3.869 E8.85514
G1 X14.228 Y-3.856 E8.8562
G1 X15.613 Y-3.087 E8.90888
G1 X15.647 Y-3.063 E8.91027
G1 X16.682 Y-2.167 E8.9558
G1 X16.719 Y-2.125 E8.95766
G1 X17.36 Y-1.139 E8.99678
G1 X17.388 Y-1.071 E8.99922
G1 X17.604 Y-0.041 E9.03423
G1 X17.604 Y0.041 E9.03695
G1 X17.388 Y1.071 E9.07196
G1 X17.36 Y1.139 E9.0744
G1 X16.719 Y2.125 E9.11352
G1 X16.682 Y2.167 E9.11538
G1 X15.647 Y3.063 E9.16091
G1 X15.613 Y3.087 E9.1623
G1 X14.228 Y3.856 E9.21499
G1 X14.199 Y3.869 E9.21604
G1 X12.525 Y4.478 E9.27529
G1 X12.5 Y4.485 E9.27615
G1 X10.604 Y4.907 E9.34076
G1 X10.582 Y4.911 E9.3415
G1 X8.556 Y5.126 E9.40927
G1 X8.535 Y5.127 E9.40996
G1 X6.464 Y5.127 E9.47885
G1 X6.443 Y5.126 E9.47955
G1 X4.417 Y4.911 E9.54731
G1 X4.397 Y4.908 E9.54798
G1 X2.503 Y4.508 E9.61237
G1 X1.617 Y4.903 E9.64463
G1 X1.578 Y4.916 E9.646
G1 X0.559 Y5.133 E9.68065
G1 X0.517 Y5.137 E9.68205
G1 X-.517 Y5.137 E9.71644
G1 X-.559 Y5.133 E9.71785
G1 X-1.578 Y4.916 E9.7525
G1 X-1.619 Y4.902 E9.75394
G1 X-2.53 Y4.489 E9.78721
G1 X-4.394 Y4.907 E9.85074
G1 X-4.417 Y4.911 E9.85152
G1 X-6.443 Y5.126 E9.91928
G1 X-6.464 Y5.127 E9.91998
G1 X-8.535 Y5.127 E9.98887
G1 X-8.556 Y5.126 E9.98957
G1 X-10.582 Y4.911 E10.05733
G1 X-10.604 Y4.907 E10.05807
G1 X-12.5 Y4.485 E10.12268
G1 X-12.525 Y4.478 E10.12354
G1 X-14.199 Y3.869 E10.18279
G1 X-14.228 Y3.856 E10.18384
G1 X-15.613 Y3.087 E10.23653
G1 X-15.647 Y3.063 E10.23792
G1 X-16.682 Y2.167 E10.28345
G1 X-16.719 Y2.125 E10.28531
G1 X-17.36 Y1.139 E10.32443
G1 X-17.388 Y1.071 E10.32687
G1 X-17.604 Y0.041 E10.36188
G1 X-17.604 Y-0.041 E10.3646
G1 X-17.388 Y-1.071 E10.39961
G1 X-17.36 Y-1.139 E10.40205
G1 X-16.719 Y-2.125 E10.44117
G1 X-16.682 Y-2.167 E10.44303
G1 X-15.647 Y-3.063 E10.48856
G1 X-15.613 Y-3.087 E10.48995
G1 X-14.228 Y-3.856 E10.54263
G1 X-14.199 Y-3.869 E10.54369
G1 X-12.525 Y-4.478 E10.60294
G1 X-12.5 Y-4.485 E10.6038
G1 X-10.604 Y-4.907 E10.66841
G1 X-10.582 Y-4.911 E10.66915
G1 X-8.556 Y-5.126 E10.73691
G1 X-8.535 Y-5.127 E10.73761
G1 X-6.464 Y-5.127 E10.8065
G1 X-6.443 Y-5.126 E10.80719
G1 X-4.417 Y-4.911 E10.87496
G1 X-4.394 Y-4.907 E10.87573
G1 X-2.531 Y-4.489 E10.93924
G1 X-1.619 Y-4.902 E10.97254
G1 X-1.578 Y-4.916 E10.97398
G1 X-.559 Y-5.133 E11.00863
G1 X-.517 Y-5.137 E11.01003
G1 X0.517 Y-5.137 E11.04442
G1 X0.559 Y-5.133 E11.04583
G1 X1.578 Y-4.916 E11.08048
G1 X1.619 Y-4.902 E11.08192
G1 X2.53 Y-4.489 E11.11519
G1 F2700 E4.61519
G0 F1500 X2.33 Y-3.15
;TYPE:WALL-INNER
G1 F2700 E11.11519
G1 F900 X2.831 Y-3.331 E11.13291
G1 X4.584 Y-3.722 E11.19264
G1 X6.521 Y-3.927 E11.25743
G1 X8.478 Y-3.927 E11.32252
G1 X10.415 Y-3.722 E11.3873
G1 X12.163 Y-3.333 E11.44686
G1 X13.711 Y-2.771 E11.50164
G1 X14.945 Y-2.084 E11.54861
G1 X15.791 Y-1.351 E11.58584
G1 X16.252 Y-.641 E11.614
G1 X16.387 Y0.00 E11.63579
G1 X16.252 Y0.641 E11.65758
G1 X15.791 Y1.351 E11.68573
G1 X14.945 Y2.084 E11.72296
G1 X13.711 Y2.771 E11.76994
G1 X12.163 Y3.333 E11.82471
G1 X10.415 Y3.722 E11.88427
G1 X8.478 Y3.927 E11.94906
G1 X6.521 Y3.927 E12.01415
G1 X4.592 Y3.722 E12.07867
G1 X2.27 Y3.198 E12.15784
G1 X1.964 Y3.436 E12.17073
G1 X1.225 Y3.765 E12.19764
G1 X0.414 Y3.937 E12.22521
G1 X-.414 Y3.937 E12.25275
G1 X-1.225 Y3.765 E12.28033
G1 X-1.961 Y3.437 E12.30713
G1 X-2.33 Y3.15 E12.32267
G1 X-2.831 Y3.331 E12.34039
G1 X-4.584 Y3.722 E12.40013
G1 X-6.521 Y3.927 E12.46491
G1 X-8.478 Y3.927 E12.53
G1 X-10.415 Y3.722 E12.59479
G1 X-12.163 Y3.333 E12.65435
G1 X-13.711 Y2.771 E12.70912
G1 X-14.945 Y2.084 E12.7561
G1 X-15.791 Y1.351 E12.79333
G1 X-16.252 Y0.641 E12.82149
G1 X-16.387 Y0.00 E12.84327
G1 X-16.252 Y-.641 E12.86506
G1 X-15.791 Y-1.351 E12.89322
G1 X-14.945 Y-2.084 E12.93045
G1 X-13.711 Y-2.771 E12.97742
G1 X-12.163 Y-3.333 E13.0322
G1 X-10.415 Y-3.722 E13.09176
G1 X-8.478 Y-3.927 E13.15654
G1 X-6.521 Y-3.927 E13.22163
G1 X-4.584 Y-3.722 E13.28642
G1 X-2.83 Y-3.331 E13.34619
G1 X-2.335 Y-3.148 E13.36374
G1 X-1.964 Y-3.436 E13.37936
G1 X-1.225 Y-3.765 E13.40627
G1 X-.414 Y-3.937 E13.43384
G1 X0.414 Y-3.937 E13.46138
G1 X1.225 Y-3.765 E13.48895
G1 X1.961 Y-3.437 E13.51575
G1 X2.33 Y-3.15 E13.5313
G1 F2700 E7.0313
G0 F1500 X1.343 Y-1.49
G1 F2700 E13.5313
G1 F900 X1.003 Y-1.736 E13.54526
G1 X0.619 Y-1.908 E13.55925
G1 X0.209 Y-1.994 E13.57319
G1 X-.209 Y-1.994 E13.58709
G1 X-.619 Y-1.908 E13.60102
G1 X-1.002 Y-1.736 E13.61499
G1 X-1.342 Y-1.49 E13.62895
G1 X-1.624 Y-1.177 E13.64296
G1 X-1.831 Y-.815 E13.65683
G1 X-1.961 Y-.417 E13.67075
G1 X-2.005 Y0.00 E13.6847
G1 X-1.961 Y0.417 E13.69865
G1 X-1.831 Y0.815 E13.71257
G1 X-1.624 Y1.177 E13.72644
G1 X-1.343 Y1.49 E13.74043
G1 X-1.003 Y1.736 E13.75439
G1 X-.619 Y1.908 E13.76839
G1 X-.209 Y1.994 E13.78232
G1 X0.209 Y1.994 E13.79622
G1 X0.619 Y1.908 E13.81016
G1 X1.003 Y1.736 E13.82415
G1 X1.343 Y1.49 E13.83811
G1 X1.624 Y1.177 E13.8521
G1 X1.831 Y0.815 E13.86597
G1 X1.961 Y0.417 E13.87989
G1 X2.005 Y0.00 E13.89384
G1 X1.961 Y-.417 E13.90779
G1 X1.831 Y-.815 E13.92171
G1 X1.624 Y-1.177 E13.93558
G1 X1.343 Y-1.49 E13.94957
G0 F1500 X1.074 Y-1.191
G1 F900 X0.802 Y-1.388 E13.96074
G1 X0.495 Y-1.525 E13.97192
G1 X0.167 Y-1.594 E13.98307
G1 X-.167 Y-1.594 E13.99418
G1 X-.495 Y-1.525 E14.00533
G1 X-.801 Y-1.388 E14.01648
G1 X-1.073 Y-1.191 E14.02765
G1 X-1.298 Y-.941 E14.03884
G1 X-1.464 Y-.652 E14.04992
G1 X-1.568 Y-.333 E14.06108
G1 X-1.603 Y0.00 E14.07222
G1 X-1.568 Y0.333 E14.08335
G1 X-1.464 Y0.652 E14.09451
G1 X-1.298 Y0.941 E14.1056
G1 X-1.074 Y1.191 E14.11676
G1 X-.802 Y1.388 E14.12793
G1 X-.495 Y1.525 E14.13912
G1 X-.167 Y1.594 E14.15026
G1 X0.167 Y1.594 E14.16137
G1 X0.495 Y1.525 E14.17252
G1 X0.802 Y1.388 E14.1837
G1 X1.074 Y1.191 E14.19487
G1 X1.298 Y0.941 E14.20604
G1 X1.464 Y0.652 E14.21712
G1 X1.568 Y0.333 E14.22828
G1 X1.603 Y0.00 E14.23942
G1 X1.568 Y-.333 E14.25055
G1 X1.464 Y-.652 E14.26171
G1 X1.298 Y-.941 E14.2728
G1 X1.074 Y-1.191 E14.28396
G1 F2700 E7.78396
G0 F1500 X2.401 Y-3.601
G1 F2700 E14.28396
G1 F900 X2.717 Y-3.715 E14.29514
G1 X4.525 Y-4.118 E14.35675
G1 X6.498 Y-4.327 E14.42274
G1 X8.501 Y-4.327 E14.48936
G1 X10.474 Y-4.118 E14.55535
G1 X12.28 Y-3.716 E14.61688
G1 X13.88 Y-3.135 E14.6735
G1 X15.172 Y-2.416 E14.72268
G1 X16.095 Y-1.617 E14.76328
G1 X16.628 Y-.796 E14.79584
G1 X16.796 Y0.00 E14.8229
G1 X16.628 Y0.796 E14.84995
G1 X16.095 Y1.617 E14.88251
G1 X15.172 Y2.416 E14.92311
G1 X13.88 Y3.135 E14.97229
G1 X12.28 Y3.716 E15.02891
G1 X10.474 Y4.118 E15.09045
G1 X8.501 Y4.327 E15.15644
G1 X6.498 Y4.327 E15.22306
G1 X4.53 Y4.118 E15.28888
G1 X2.366 Y3.63 E15.36266
G1 X2.171 Y3.781 E15.37087
G1 X1.349 Y4.147 E15.40079
G1 X0.455 Y4.337 E15.43119
G1 X-.455 Y4.337 E15.46146
G1 X-1.349 Y4.147 E15.49186
G1 X-2.168 Y3.782 E15.52168
G1 X-2.401 Y3.601 E15.53149
G1 X-2.717 Y3.715 E15.54267
G1 X-4.525 Y4.118 E15.60428
G1 X-6.498 Y4.327 E15.67027
G1 X-8.501 Y4.327 E15.73689
G1 X-10.474 Y4.118 E15.80288
G1 X-12.28 Y3.716 E15.86441
G1 X-13.88 Y3.135 E15.92103
G1 X-15.172 Y2.416 E15.97021
G1 X-16.095 Y1.617 E16.01081
G1 X-16.628 Y0.796 E16.04337
G1 X-16.796 Y0.00 E16.07043
G1 X-16.628 Y-.796 E16.09748
G1 X-16.095 Y-1.617 E16.13004
G1 X-15.172 Y-2.416 E16.17064
G1 X-13.88 Y-3.135 E16.21982
G1 X-12.28 Y-3.716 E16.27644
G1 X-10.474 Y-4.118 E16.33798
G1 X-8.501 Y-4.327 E16.40397
G1 X-6.498 Y-4.327 E16.47059
G1 X-4.525 Y-4.118 E16.53658
G1 X-2.717 Y-3.715 E16.59819
G1 X-2.405 Y-3.6 E16.60924
